X:1
T:Nachtgesang
T:Franz Xaver Chwatal
T:Louis Sievert
T:Nachtgesang
T:Lovely Night
T:CPDL - Creative Commons Attribution Non Commercial 3.0
T:CPDL - Creative Commons Attribution Non Commercial 3.0
T:CPDL - Creative Commons Attribution Non Commercial 3.0
C:Franz Xaver Chwatal
Z:Louis Sievert
Z:CPDL - Creative Commons Attribution Non Commercial 3.0
%%score [ 1 ( 2 3 ) ( 4 5 6 7 ) ]
L:1/8
Q:1/4=120
M:3/4
K:Ab
V:1 treble-8 nm="Tenor\n1"
V:2 treble-8 nm="Tenor\n2"
V:3 treble-8 
V:4 bass nm="Bass"
V:5 bass 
V:6 bass 
V:7 bass 
V:1
"^Andantino"!p! c4 e2 | d4!f! f2 |!>(! (f2 e2)!>)! B2 | c4 z2 |!>(! g4!>)! a2 | e4 e2 | %6
w: 1\-3.~Nacht, o|Nacht, du|heil'- * ge|Nacht,|1.~brei- test|dei- nen|
w: ||||2.~he- best|uns in|
w: ||||3.~lass auch|jetzt in|
 (e2 d2) c2 | c4 B2 | g4 a2 | e4 e2 | (e2 d2) c2 | c2 B2 z2 |!p! e4 A2 | A4 d2 |"^cresc." f4 B2 | %15
w: Frie- * dens-|schlei- er|ü- ber|Wie- se,|Wald * und|Wei- her,|we- hest|sü- ße,|sü- ße|
w: Traum- * ge-|bil- den|auf zu|schö- ne-|ren _ Ge-|fil- den,|lei- test|lä- chelnd|uns zum|
w: dei- * nem|Ar- me|ru- hen|mich nach|lan- * gem|Har- me;|we- be|Lieb- chen|hold und|
 (B4 e2) |!f! (g2 a2) =e2 | (f2"^decresc." =d2) _e2 | f4 e2 | (_d2 c2) z2 |!p! e4 A2 | (A2 GA) de | %22
w: Ruh' _|lie- * bend|al- * len|Mü- den|zu, _|we- hest|sü- * * ße, _|
w: Glück, _|kehr- * ten|nie _ doch|wir zu-|rück! _|lei- test|lä- * * chelnd *|
w: mild, _|trös- * tend|in _ mein|Traum- ge-|bild! _|we- be|Lieb- * * chen *|
"^cresc." f4 B2 | (B2 =AB) ef |!f! (g2 _a2) =e2 | (f2"^decresc." =d2) e2 |"^smorz." f4 e2 | %27
w: sü- ße|Ru- * * he *|lie- * bend|al- * len|Mü- den|
w: uns zum|Glü- * * cke, *|kehr- * ten|nie _ doch|wir zu-|
w: hold und|mil- * * de, *|trös- * tend|in _ mein|Traum- ge-|
 A4 z2 |] %28
w: zu.|
w: rück!|
w: bild!|
V:2
!p! A4 A2 | A4!f! d2 |!>(! d4!>)! d2 | c4 z2 |!>(! (B2 e2)!>)! e2 | B4 A2 | G4 A2 | A4 G2 | %8
w: 1\-3.~Nacht, o|Nacht, du|heil'- ge|Nacht,|1.~brei- * test|dei- nen|Frie- dens-|schlei- er|
w: ||||2.~he- * best|uns in|Traum- ge-|bil- den|
w: ||||3.~lass _ auch|jetzt in|dei- nem|Ar- me|
 (B2 e2) e2 | B4 A2 | G4 A2 | A2 G2 z2 | z2!p! A2 A2 | A4 A2 | z2"^cresc." B2 B2 | B4 z2 | %16
w: ü- * ber|Wie- se,|Wald und|Wei- her,|we- hest|sü- ße,|sü- ße|Ruh'|
w: auf _ zu|schö- ne-|ren Ge-|fil- den,|lei- test|lä- chelnd|uns zum|Glück,|
w: ru- * hen|mich nach|lan- gem|Har- me;|we- be|Lieb- chen|hold und|mild,|
!f! (d2 c2) c2 | (c2"^decresc." =B2) c2 | d4 d2 | (B2 A2) z2 | z2!p! A2 e2 | d4 A2 | %22
w: lie- * bend|al- * len|Mü- den|zu, _|we- hest|sü- ße,|
w: kehr- * ten|nie _ doch|wir zu-|rück! _|lei- test|lä- chelnd|
w: trös- * tend|in _ mein|Traum- ge-|bild! _|we- be|Lieb- chen|
 z2"^cresc." B2 f2 | e4 B2 |!f! (d2 c2) c2 | (c2"^decresc." =B2) c2 |"^smorz." d4 d2 | c4 z2 |] %28
w: sü- ße|Ru- he|lie- * bend|al- * len|Mü- den|zu.|
w: uns zum|Glü- cke,|kehr- * ten|nie _ doch|wir zu-|rück!|
w: hold und|mil- de,|trös- * tend|in _ mein|Traum- ge-|bild!|
V:3
 x6 | x6 | x6 | x6 | x6 | x6 | x6 | x6 | x6 | x6 | x6 | x6 | x6 | x6 | x6 | x4 B2 | x6 | x6 | x6 | %19
 x6 | x6 | x6 | x6 | x6 | x6 | x6 | x6 | x6 |] %28
V:4
!p! E,4 _G,2 | F,4!f! A,2 |!>(! G,4!>)! G,2 | A,4 z2 |!>(! D4!>)! C2 | G,4 A,2 | E,4 E,2 | %7
w: 1\-2.~Love- ly|night! O|love- ly|night,|1.~spread- ing|o- ver|hill and|
w: ||||2.~plac- ing|bright- er|worlds be-|
 E,4 E,2 | D4 C2 | G,4 A,2 | E,4 E,2 | E,2 E,2 z2 | z2!p! _G,2 G,2 | F,4 F,2 | %14
w: mea- dow|soft an|slow thy|ha- zy|sha- dow,|soon our|wea- ried|
w: fore us,|hap- pi-|ness thou|shed- dest|o'er us,|o that|we might|
 z2"^cresc." A,2 A,2 | =G,4 z2 |!f! (B,2 A,2) B,2 | A,4 A,2 | G,4 G,2 | E,4 z2 | z2!p! _G,2 G,2 | %21
w: eye- lids|close,|slum- * ber|in thy|blest re-|pose;|soon our|
w: ne'er re-|turn|this _ dull|earth, to|weep and|mourn;|o that|
 F,4 F,2 | z2"^cresc." A,2 A,2 | =G,4 G,2 |!f! (B,2 A,2) B,2 | A,4 A,2 |"^smorz." G,4 G,2 | %27
w: wea- ried|eye- lids|close, and|slum- * ber|in thy|blest re-|
w: we might|ne'er re-|turn to|this _ dull|earth, to|weep and|
 E,4 z2 |] %28
w: pose.|
w: mourn.|
V:5
 A,,4 A,,2 | D,4 D,2 | E,4 E,2 | A,,4 x2 | E,4 E,2 | (E,2 D,2) C,2 | B,,4 A,,2 | E,4 E,2 | %8
 E,4 E,2 | (E,2 D,2) C,2 | B,,4 A,,2 | E,2 E,2 x2 | x2 C,2 C,2 | D,4 D,2 | x2 =D,2 D,2 | E,4 x2 | %16
 (=E,2 F,2) G,2 | (A,2"^decresc." F,2) _E,2 | E,4 E,2 | A,,4 x2 | x2 C,2 C,2 | D,4 D,2 | %22
 x2 =D,2 D,2 | E,4 E,2 | (=E,2 F,2) G,2 | (A,2"^decresc." F,2) _E,2 | E,4 E,2 | A,,4 x2 |] %28
V:6
 x6 | x6 | x6 | x6 | x6 | x6 | x6 | x6 | x6 | x6 | x6 | x6 | x6 | x6 | x6 | x4 G,2 | x6 | x6 | x6 | %19
w: |||||||||||||||and||||
 x6 | x6 | x6 | x6 | x6 | x6 | x6 | x6 | x6 |] %28
w: |||||||||
V:7
 x6 | x6 | x6 | x6 | x6 | x6 | x6 | x6 | x6 | x6 | x6 | x6 | x6 | x6 | x6 | x4 E,2 | x6 | x6 | x6 | %19
w: |||||||||||||||||||
w: |||||||||||||||to||||
 x6 | x6 | x6 | x6 | x6 | x6 | x6 | x6 | x6 |] %28
w: |||||||||
w: |||||||||

